X:199 
T:Sporting Days of Easter (reel), The
F:file ID: cre.5/199sport_de
B:CRE5.149 (Laethanta Spraoi na CÃÂÃÂÃÂÃÂ¡sca)
S:Jim Mulqueeny (Clare)
N:Another setting of this same tune is in CRE2.
L:1/8
Q:180
M:C
R:reel
K:G
"D modal"
dBcA GEEG|ABGB A2Bc|dBcA GE (3EFG|ABGE D2Bc|
dBcA GEEG|ABGB A2Bc|dBcA GEEG|ABGE DB,DE ||
G2AB cBcA|dfe^c dBcA|G2AB cBce|dBcA GEDE|
G2AB cBcA|dfe^c dBcA|G2eg fde^c|ABce dfe^c|D8|

%%%

